packages/dnb-ui-lib/assets/icons/paragraph.svg

<svg width="16" height="16" viewBox="0 0 16 16" fill="none" xmlns="http://www.w3.org/2000/svg">
<path d="M11 3.37156C10.7346 2.39671 9.64598 1.6665 8.34338 1.6665C6.84202 1.6665 5.62493 2.63655 5.62493 3.83317C5.62493 4.93807 6.6626 5.8498 8.00358 5.98307L8.21669 6.01085M5 12.601C5.25244 13.5894 6.34913 14.3332 7.66377 14.3332C9.16513 14.3332 10.3822 13.3631 10.3822 12.1665C10.3822 11.0616 9.34456 10.1499 8.00358 10.0166L7.79046 9.98894M7.79046 9.98894C9.28359 10.1429 10.5894 9.37716 10.7071 8.27864C10.8248 7.18012 9.70982 6.1648 8.21669 6.01085M7.79046 9.98894C6.29732 9.83499 5.18232 8.81967 5.30002 7.72115C5.41772 6.62264 6.72356 5.85691 8.21669 6.01085" stroke="black" stroke-width="1.5"/>
</svg>

<svg width="16" height="16" viewBox="0 0 16 16" fill="none" xmlns="http://www.w3.org/2000/svg"><path d="M11 3.372c-.265-.975-1.354-1.705-2.657-1.705-1.501 0-2.718.97-2.718 2.166 0 1.105 1.038 2.017 2.379 2.15l.213.028M5 12.6c.252.988 1.35 1.732 2.664 1.732 1.501 0 2.718-.97 2.718-2.167 0-1.104-1.037-2.016-2.378-2.15L7.79 9.99m0 0c1.494.154 2.8-.612 2.917-1.71.118-1.099-.997-2.114-2.49-2.268M7.79 9.989C6.297 9.835 5.182 8.819 5.3 7.72c.118-1.098 1.424-1.864 2.917-1.71" stroke="#000" stroke-width="1.5"/></svg>
